assets/svg/203C.svg

<svg xmlns="http://www.w3.org/2000/svg" viewBox="0 0 64 64" enable-background="new 0 0 64 64"><g fill="#be212f" transform="translate(10)"><path d="m1.74 36.31c.254 2.632.677 4.591 1.27 5.877.593 1.286 1.656 1.932 3.181 1.932.287 0 .546-.048.801-.096.254.048.513.096.796.096 1.529 0 2.588-.646 3.186-1.932.589-1.286 1.016-3.245 1.27-5.877l1.358-20.317c.255-3.96.382-6.803.382-8.527 0-2.347-.617-4.179-1.844-5.493-1.234-1.314-2.85-1.973-4.861-1.973-.104 0-.183.024-.287.028-.104-.004-.183-.028-.291-.028-2.01 0-3.627.659-4.857 1.973-1.231 1.314-1.844 3.146-1.844 5.493 0 1.724.127 4.567.382 8.527l1.358 20.317"/><path d="m7.04 51.54c-1.943 0-3.604.615-4.977 1.844-1.374 1.231-2.059 2.722-2.059 4.474 0 1.981.693 3.536 2.083 4.667 1.39 1.131 3.01 1.698 4.862 1.698 1.883 0 3.528-.56 4.933-1.677 1.406-1.116 2.106-2.678 2.106-4.688 0-1.752-.673-3.243-2.02-4.475-1.342-1.228-2.986-1.843-4.933-1.843"/><path d="m32.05 36.31c.254 2.632.677 4.591 1.27 5.877.593 1.286 1.656 1.932 3.182 1.932.286 0 .545-.048.8-.096.255.048.514.096.797.096 1.528 0 2.588-.646 3.186-1.932.589-1.286 1.015-3.245 1.27-5.877l1.358-20.317c.255-3.96.382-6.803.382-8.527 0-2.347-.617-4.179-1.844-5.493-1.235-1.314-2.851-1.973-4.862-1.973-.104 0-.184.024-.287.028-.104-.004-.183-.028-.29-.028-2.01 0-3.628.659-4.858 1.973-1.23 1.314-1.844 3.146-1.844 5.493 0 1.724.127 4.567.382 8.527l1.358 20.317"/><path d="m37.34 51.54c-1.943 0-3.604.615-4.977 1.844-1.374 1.231-2.059 2.723-2.059 4.475 0 1.981.693 3.536 2.083 4.667 1.39 1.131 3.01 1.698 4.861 1.698 1.884 0 3.528-.56 4.934-1.677 1.405-1.116 2.106-2.678 2.106-4.688 0-1.752-.673-3.243-2.02-4.475-1.341-1.229-2.986-1.844-4.933-1.844"/></g></svg>

<?xml version="1.0" encoding="UTF-8" standalone="no"?>
<!-- Generator: Adobe Illustrator 16.0.0, SVG Export Plug-In . SVG Version: 6.00 Build 0)  -->

<svg
   xmlns:dc="http://purl.org/dc/elements/1.1/"
   xmlns:cc="http://creativecommons.org/ns#"
   xmlns:rdf="http://www.w3.org/1999/02/22-rdf-syntax-ns#"
   xmlns:svg="http://www.w3.org/2000/svg"
   xmlns="http://www.w3.org/2000/svg"
   xmlns:sodipodi="http://sodipodi.sourceforge.net/DTD/sodipodi-0.dtd"
   xmlns:inkscape="http://www.inkscape.org/namespaces/inkscape"
   version="1.1"
   id="Layer_1"
   x="0px"
   y="0px"
   width="64px"
   height="64px"
   viewBox="0 0 64 64"
   enable-background="new 0 0 64 64"
   xml:space="preserve"
   inkscape:version="0.48.5 r10040"
   sodipodi:docname="203C.svg"
   inkscape:export-filename="D:\TESTINGEMOJI\SVGTEST\203C.png"
   inkscape:export-xdpi="90"
   inkscape:export-ydpi="90"><metadata
   id="metadata3127"><rdf:RDF><cc:Work
       rdf:about=""><dc:format>image/svg+xml</dc:format><dc:type
         rdf:resource="http://purl.org/dc/dcmitype/StillImage" /><dc:title></dc:title></cc:Work></rdf:RDF></metadata><defs
   id="defs3125" /><sodipodi:namedview
   pagecolor="#ffffff"
   bordercolor="#666666"
   borderopacity="1"
   objecttolerance="10"
   gridtolerance="10"
   guidetolerance="10"
   inkscape:pageopacity="0"
   inkscape:pageshadow="2"
   inkscape:window-width="640"
   inkscape:window-height="480"
   id="namedview3123"
   showgrid="false"
   inkscape:zoom="3.6875"
   inkscape:cx="32"
   inkscape:cy="32"
   inkscape:window-x="399"
   inkscape:window-y="179"
   inkscape:window-maximized="0"
   inkscape:current-layer="Layer_1" />
<g
   id="g3111"
   transform="translate(10,0)">
	<path
   d="m 1.74,36.31 c 0.254,2.632 0.677,4.591 1.27,5.877 0.593,1.286 1.656,1.932 3.181,1.932 0.287,0 0.546,-0.048 0.801,-0.096 0.254,0.048 0.513,0.096 0.796,0.096 1.529,0 2.588,-0.646 3.186,-1.932 0.589,-1.286 1.016,-3.245 1.27,-5.877 L 13.602,15.993 C 13.857,12.033 13.984,9.19 13.984,7.466 13.984,5.119 13.367,3.287 12.14,1.973 10.906,0.659 9.29,0 7.279,0 7.175,0 7.096,0.024 6.992,0.028 6.888,0.024 6.809,0 6.701,0 4.694,0 3.074,0.659 1.844,1.973 0.613,3.287 0,5.119 0,7.466 0,9.19 0.127,12.033 0.382,15.993 L 1.74,36.31 z"
   id="path3113"
   inkscape:connector-curvature="0"
   style="fill:#be212f" />
	<path
   d="m 7.036,51.54 c -1.943,0 -3.604,0.615 -4.977,1.844 C 0.685,54.615 0,56.106 0,57.858 c 0,1.981 0.693,3.536 2.083,4.667 1.39,1.131 3.01,1.698 4.862,1.698 1.883,0 3.528,-0.56 4.933,-1.677 1.406,-1.116 2.106,-2.678 2.106,-4.688 0,-1.752 -0.673,-3.243 -2.015,-4.475 C 10.627,52.155 8.983,51.54 7.036,51.54 z"
   id="path3115"
   inkscape:connector-curvature="0"
   style="fill:#be212f" />
</g>
<g
   id="g3117"
   transform="translate(10,0)">
	<path
   d="m 32.049,36.31 c 0.254,2.632 0.677,4.591 1.27,5.877 0.593,1.286 1.656,1.932 3.182,1.932 0.286,0 0.545,-0.048 0.8,-0.096 0.255,0.048 0.514,0.096 0.797,0.096 1.528,0 2.588,-0.646 3.186,-1.932 0.589,-1.286 1.015,-3.245 1.27,-5.877 L 43.912,15.993 C 44.167,12.033 44.294,9.19 44.294,7.466 44.294,5.119 43.677,3.287 42.45,1.973 41.215,0.659 39.599,0 37.588,0 37.484,0 37.404,0.024 37.301,0.028 37.197,0.024 37.118,0 37.011,0 c -2.007,0 -3.628,0.659 -4.858,1.973 -1.23,1.314 -1.844,3.146 -1.844,5.493 0,1.724 0.127,4.567 0.382,8.527 l 1.358,20.317 z"
   id="path3119"
   inkscape:connector-curvature="0"
   style="fill:#be212f" />
	<path
   d="m 37.345,51.54 c -1.943,0 -3.604,0.615 -4.977,1.844 -1.374,1.231 -2.059,2.723 -2.059,4.475 0,1.981 0.693,3.536 2.083,4.667 1.39,1.131 3.01,1.698 4.861,1.698 1.884,0 3.528,-0.56 4.934,-1.677 1.405,-1.116 2.106,-2.678 2.106,-4.688 0,-1.752 -0.673,-3.243 -2.015,-4.475 -1.341,-1.229 -2.986,-1.844 -4.933,-1.844 z"
   id="path3121"
   inkscape:connector-curvature="0"
   style="fill:#be212f" />
</g>
</svg>
